icons/line/at-symbol.svg

<svg width="24" height="24" viewBox="0 0 24 24" fill="none" xmlns="http://www.w3.org/2000/svg">
<path fill-rule="evenodd" clip-rule="evenodd" d="M12 3C8.47408 3 6.17386 4.49153 4.78847 6.4157C3.43978 8.28887 3 10.5066 3 12C3 13.4934 3.43978 15.7111 4.78847 17.5843C6.17386 19.5085 8.47408 21 12 21C14.3846 21 16.229 20.3176 17.612 19.2473C18.0488 18.9093 18.1289 18.2812 17.7908 17.8444C17.4528 17.4076 16.8247 17.3276 16.388 17.6656C15.385 18.4418 13.9806 19 12 19C9.12592 19 7.42614 17.8249 6.41153 16.4157C5.36022 14.9555 5 13.1733 5 12C5 10.8267 5.36022 9.04446 6.41153 7.5843C7.42614 6.17513 9.12592 5 12 5C14.8741 5 16.5739 6.17513 17.5885 7.5843C18.6398 9.04446 19 10.8267 19 12C19 12.369 18.9018 12.8966 18.6183 13.3015C18.3752 13.6487 17.9367 14 17 14C16.7253 14 16.5062 13.8686 16.3015 13.4423C16.0857 12.9927 16 12.4026 16 12C16 9.79086 14.2091 8 12 8C9.79086 8 8 9.79086 8 12C8 14.2091 9.79086 16 12 16C13.097 16 14.0909 15.5584 14.8136 14.8432C15.2601 15.4688 15.9635 16 17 16C18.5633 16 19.6248 15.3513 20.2567 14.4485C20.8482 13.6034 21 12.631 21 12C21 10.5066 20.5602 8.28887 19.2115 6.4157C17.8261 4.49153 15.5259 3 12 3ZM14 12C14 10.8954 13.1046 10 12 10C10.8954 10 10 10.8954 10 12C10 13.1046 10.8954 14 12 14C13.1046 14 14 13.1046 14 12Z" fill="currentColor"/>
</svg>

<svg width="24" height="24" fill="none" xmlns="http://www.w3.org/2000/svg"><path fill-rule="evenodd" clip-rule="evenodd" d="M12 3C8.474 3 6.174 4.492 4.788 6.416 3.44 8.289 3 10.506 3 12c0 1.493.44 3.711 1.788 5.584C6.174 19.51 8.474 21 12 21c2.385 0 4.229-.682 5.612-1.753a1 1 0 10-1.224-1.581C15.385 18.442 13.981 19 12 19c-2.874 0-4.574-1.175-5.588-2.584C5.36 14.956 5 13.173 5 12c0-1.173.36-2.956 1.412-4.416C7.426 6.175 9.126 5 12 5s4.574 1.175 5.588 2.584C18.64 9.044 19 10.827 19 12c0 .369-.098.897-.382 1.302-.243.347-.681.698-1.618.698-.275 0-.494-.131-.698-.558-.216-.45-.302-1.04-.302-1.442a4 4 0 10-1.186 2.843C15.26 15.47 15.964 16 17 16c1.563 0 2.625-.649 3.257-1.552.591-.845.743-1.817.743-2.448 0-1.493-.44-3.711-1.788-5.584C17.826 4.492 15.526 3 12 3zm2 9a2 2 0 10-4 0 2 2 0 004 0z" fill="currentColor"/></svg>
